X:2285
T:Jig
C:P.Cain (Phil the Desert), West Baldwin 
C:Traditional
O:Isle of Man 
Z:Clague Collection
B:Kiaull Vannin 285
M:6/8 
K:D 
A2F E2F|A2B c3|d2c B2A|B2A F3|A2F E2F|A2B c3|d2B A2G|A3 A3|| 

